frontend/public/svg/hand gestures/2-scroll-right.svg

<svg width="125" height="150" viewBox="0 0 125 150" fill="none" xmlns="http://www.w3.org/2000/svg">
<g clip-path="url(#clip0)">
<path d="M6.42508 91.7937L7.00577 92.3109C11.8031 96.4879 15.7949 101.508 18.7836 107.124C22.9074 115.037 27.5892 123.506 33.0959 133.014C34.4883 135.23 36.2697 137.176 38.3539 138.759C42.5354 142.05 47.2298 144.631 52.2492 146.398C56.8807 148.14 61.7883 149.032 66.7366 149.03C72.559 148.961 78.3262 147.884 83.7804 145.844C87.8188 144.336 91.5599 142.128 94.8338 139.322C100.761 134.416 104.891 127.716 107.459 118.837C110.887 107.038 112.344 94.7545 111.774 82.481C111.532 78.982 110.762 75.5402 109.488 72.2729C107.581 67.0977 102.956 64.3108 97.3908 65.0092C95.7277 65.2965 94.1085 65.7988 92.5753 66.5037C91.9301 66.7663 91.2659 67.0347 90.5879 67.2789C87.8871 61.4256 82.7184 58.8613 75.2125 59.6508C75.2125 59.3962 75.2158 59.1605 75.2178 58.9394C75.223 58.3126 75.227 57.8006 75.2079 57.2893C75.1023 54.5301 75.0032 51.7706 74.9119 49.0109C74.6776 42.2507 74.4367 35.2626 74.0357 28.396C73.6242 21.3496 71.8199 15.5869 68.5225 10.7779C65.7717 6.76836 61.1256 5.64734 57.223 8.05283C55.2849 9.25551 53.6518 10.891 52.452 12.831C51.4811 14.5759 50.6765 16.4084 50.0491 18.3042C49.8293 18.906 49.6094 19.5079 49.3784 20.1045C49.2322 19.8761 49.0861 19.6448 48.9399 19.4108C48.3447 18.4205 47.6883 17.4683 46.9748 16.5596C44.5332 13.5792 41.4616 12.8933 37.8517 14.5217C34.6357 15.9722 32.6771 18.4039 32.1927 21.5557C31.8055 24.0786 31.6245 26.6699 31.4492 29.1758C31.3698 30.3158 31.2897 31.4559 31.1919 32.594C30.0866 45.3755 30.6058 58.3598 31.1073 70.9169L31.2019 73.3008C31.2524 74.5891 31.2397 75.892 31.2259 77.2723C31.2213 77.7186 31.217 78.1747 31.2143 78.6433L30.9897 78.4464C30.5302 78.0494 30.1366 77.7061 29.7126 77.4009C23.1249 72.6425 16.0921 70.9373 8.81201 72.334C7.15916 72.6011 5.60376 73.2922 4.29679 74.3384C2.98983 75.3853 1.97589 76.7524 1.35353 78.3066C0.750566 79.9586 0.578603 81.738 0.854222 83.4746C1.12984 85.212 1.84388 86.8502 2.92867 88.2351C3.96949 89.5372 5.14114 90.7298 6.42508 91.7937ZM37.3556 86.6559C37.2053 77.861 37.0163 69.3109 36.8509 62.1088C36.8069 60.2015 36.7353 58.2929 36.6644 56.3849C36.5252 52.6438 36.3809 48.7714 36.4577 44.9738C36.5817 38.8128 36.9998 32.5513 37.4034 26.4953L37.5348 24.5072C37.7599 21.1054 38.97 19.3878 41.575 18.7971C43.6865 20.1675 44.9959 22.4384 45.5788 25.7346C46.4512 30.6832 47.0645 35.674 47.4164 40.6866C47.8515 46.952 48.1825 53.331 48.5028 59.4999C48.6885 63.0749 48.8736 66.654 49.0797 70.2245C49.1512 71.4578 49.429 72.2697 49.9068 72.6365C50.7862 73.3684 51.9031 73.7523 53.0466 73.7162C53.907 73.585 54.9186 72.2066 54.9829 71.3317C55.2062 68.6289 55.2115 65.9124 54.9986 63.2088C53.8395 50.2547 54.7484 37.4876 55.9613 23.337C56.2379 21.3351 56.783 19.3796 57.5813 17.5231C57.7237 17.1457 57.8656 16.7697 58.0015 16.3955C58.4062 15.5297 59.0016 14.7668 59.7432 14.164C60.5755 13.4125 61.2678 13.0909 61.7975 13.211C62.2885 13.3226 62.7237 13.8325 63.0932 14.7271L63.2512 15.1111C64.5035 18.1467 65.7987 21.2853 66.3034 24.477C67.1586 29.7735 67.6135 35.1268 67.664 40.4917C67.706 47.4856 67.4743 54.6029 67.2512 61.4846C67.1836 63.5635 67.1179 65.6419 67.0543 67.7199C67.0123 68.606 66.9263 69.4901 66.795 70.3676C66.6788 71.2458 66.5594 72.1541 66.5325 73.0586C66.4865 74.5425 66.8606 75.6058 67.6482 76.2188C68.4358 76.8319 69.5667 76.9369 71.0021 76.5273C71.944 76.291 72.7926 75.7758 73.4358 75.0486C74.0797 74.3214 74.4886 73.4169 74.6087 72.4534C74.7833 71.4144 74.8778 70.3531 74.9684 69.322C75.0242 68.6887 75.0799 68.0553 75.1541 67.4239C75.4029 65.3098 76.4747 64.3843 78.6248 64.4349C80.1318 64.5042 81.5797 65.0415 82.767 65.9721C83.9536 66.9021 84.8213 68.18 85.2492 69.6266C85.5288 70.808 85.7048 72.0111 85.7743 73.2233C85.8032 73.5567 85.8321 73.8888 85.8662 74.2203C85.8931 74.5859 85.8957 74.9534 85.8747 75.3196C85.8032 75.9891 85.8721 76.6658 86.0776 77.307C86.3998 78.1058 87.2334 79.5333 88.3091 79.8202C89.0626 80.0171 90.118 79.6541 91.4556 78.7352C91.8776 78.3821 92.2012 77.926 92.3948 77.4107C92.509 77.1594 92.6403 76.9165 92.7886 76.6835C93.0452 76.3042 93.2933 75.9163 93.5414 75.5277C94.1551 74.4959 94.8653 73.5252 95.662 72.628C96.9321 71.2943 98.3727 70.659 99.7189 70.8382C101.049 71.0167 102.253 71.9907 103.111 73.5823C105.215 77.2565 106.226 81.4558 106.024 85.6852C105.492 93.5744 104.563 101.538 103.734 108.384C103.012 114.347 100.594 119.841 98.3228 124.429C94.8088 131.531 88.7948 136.351 79.9382 139.164C67.2485 143.194 54.8004 140.994 42.9365 132.625C41.6718 131.765 40.5668 130.69 39.6711 129.45C37.6864 126.614 35.8596 123.671 34.1986 120.633C31.4755 115.565 28.8165 110.325 26.3001 105.058C22.303 96.6979 17.189 90.1129 10.665 84.9271C9.56017 84.0444 8.62791 82.9653 7.915 81.7439C7.71527 81.4328 7.58407 81.0823 7.53071 80.7167C7.47742 80.3505 7.50308 79.9777 7.60573 79.6226C7.76319 79.2209 8.00282 78.8567 8.30952 78.5534C8.61616 78.2502 8.98306 78.0146 9.38631 77.8616C10.678 77.2847 12.0777 76.99 13.4922 76.9966C14.2526 76.9992 15.0111 77.0727 15.758 77.2152C21.4866 78.2804 25.3302 80.4102 27.8532 83.9164C28.742 85.3104 29.4272 86.8246 29.8879 88.4123C30.0257 88.8126 30.1633 89.211 30.3058 89.6035C30.8669 91.1426 31.6507 92.5702 33.5724 92.5912C35.2566 92.6056 36.5175 91.5627 36.9736 89.719C37.233 88.7188 37.3614 87.689 37.3556 86.6559Z" fill="black"/>
<path d="M86.3881 16.8452C88.3019 16.985 90.2834 17.0565 92.4441 17.0631C97.6948 17.0801 102.946 17.0775 108.271 17.0749H113.739L113.376 17.5527C112.83 18.2721 112.287 18.9892 111.747 19.7042C111.353 20.2293 110.955 20.753 110.552 21.2755C109.536 22.6045 108.486 23.9789 107.518 25.3802C106.446 26.9305 106.526 28.4105 107.737 29.4416C108.114 29.7929 108.605 29.9941 109.12 30.0067C109.966 29.8982 110.756 29.5261 111.379 28.9434L111.465 28.8778C111.754 28.6568 112.015 28.4028 112.245 28.1211C113.205 26.9624 114.168 25.8066 115.133 24.6536C117.582 21.7244 120.114 18.6954 122.518 15.6454C123.658 14.2014 124.084 13.1218 123.896 12.1504C123.705 11.1429 122.878 10.2785 121.133 9.2625C117.917 7.38886 114.706 5.50563 111.502 3.61275L107.51 1.26503C107.394 1.19313 107.283 1.11513 107.176 1.03138C106.904 0.765142 106.545 0.605593 106.165 0.581787L105.978 0.595568C105.114 0.656607 104.038 0.733397 103.56 1.32869C103.058 1.95549 103.092 3.30624 103.459 4.09516C103.952 4.91268 104.651 5.58641 105.487 6.04908C107.352 7.29612 109.272 8.52741 111.131 9.71735C111.774 10.1295 112.416 10.5424 113.059 10.9559L108.421 11.2079C104.656 11.3871 100.891 11.5669 97.1264 11.7697L96.0632 11.8275C92.8806 11.9975 89.5884 12.1727 86.3684 12.5409C85.8545 12.6777 85.3826 12.9398 84.9947 13.3037C84.6068 13.6676 84.316 14.122 84.1467 14.6261C84.0863 14.8502 84.0758 15.0849 84.1171 15.3133C84.1585 15.5417 84.2504 15.758 84.3856 15.9466C84.637 16.2291 84.9454 16.455 85.2907 16.6099C85.6359 16.7648 86.01 16.8449 86.3881 16.8452Z" fill="black"/>
</g>
<defs>
<clipPath id="clip0">
<rect width="124.048" height="148.989" fill="white" transform="translate(0.291016 0.230713)"/>
</clipPath>
</defs>
</svg>

<svg xmlns="http://www.w3.org/2000/svg" width="125" height="150" fill="none" viewBox="0 0 125 150"><g fill="#000" clip-path="url(#a)"><path d="m6.425 91.794.58.517a52.1 52.1 0 0 1 11.779 14.813c4.123 7.913 8.805 16.382 14.312 25.89a21.7 21.7 0 0 0 5.258 5.745 48.5 48.5 0 0 0 13.895 7.639 41.1 41.1 0 0 0 14.488 2.632 50.4 50.4 0 0 0 17.043-3.186 36.7 36.7 0 0 0 11.054-6.522c5.927-4.906 10.057-11.606 12.625-20.485a111.7 111.7 0 0 0 4.315-36.356 34.7 34.7 0 0 0-2.286-10.208c-1.907-5.175-6.532-7.962-12.097-7.264-1.663.287-3.282.79-4.816 1.495-.645.262-1.31.53-1.987.775-2.7-5.853-7.87-8.418-15.375-7.628q.001-.38.005-.712c.005-.626.009-1.138-.01-1.65q-.16-4.138-.296-8.278c-.234-6.76-.475-13.748-.876-20.615-.412-7.046-2.216-12.81-5.514-17.618-2.75-4.01-7.396-5.13-11.299-2.725a14.76 14.76 0 0 0-4.771 4.778 32 32 0 0 0-2.403 5.473 100 100 0 0 1-.67 1.8q-.22-.343-.44-.693a28 28 0 0 0-1.964-2.851c-2.442-2.98-5.513-3.667-9.123-2.038-3.216 1.45-5.175 3.882-5.66 7.034-.387 2.523-.567 5.114-.743 7.62-.08 1.14-.16 2.28-.257 3.418-1.105 12.782-.586 25.766-.085 38.323l.095 2.384c.05 1.288.038 2.591.024 3.971q-.007.67-.012 1.371l-.224-.197c-.46-.397-.853-.74-1.277-1.045-6.588-4.758-13.62-6.464-20.901-5.067a9.7 9.7 0 0 0-7.458 5.973 10.35 10.35 0 0 0 1.575 9.928 24.4 24.4 0 0 0 3.496 3.559m30.93-5.138c-.15-8.795-.339-17.345-.504-24.547-.044-1.907-.116-3.816-.187-5.724-.139-3.741-.283-7.614-.206-11.411.124-6.161.542-12.423.945-18.479l.132-1.988c.225-3.402 1.435-5.12 4.04-5.71 2.111 1.37 3.42 3.641 4.004 6.938a144 144 0 0 1 1.837 14.952c.436 6.265.767 12.644 1.087 18.813.185 3.575.37 7.154.577 10.725.071 1.233.349 2.045.827 2.412a4.68 4.68 0 0 0 3.14 1.08c.86-.132 1.872-1.51 1.936-2.385.223-2.703.229-5.42.016-8.123-1.16-12.954-.25-25.721.962-39.872a22.5 22.5 0 0 1 1.62-5.814q.216-.566.42-1.128a6.3 6.3 0 0 1 1.742-2.231c.832-.751 1.525-1.073 2.054-.953.492.112.927.621 1.296 1.516l.158.384c1.253 3.036 2.548 6.174 3.052 9.366a107 107 0 0 1 1.361 16.015c.042 6.994-.19 14.11-.413 20.993q-.1 3.118-.197 6.235-.063 1.33-.259 2.648c-.116.878-.236 1.786-.263 2.69-.045 1.484.329 2.548 1.116 3.16.788.614 1.919.719 3.354.31a4.81 4.81 0 0 0 3.607-4.075c.174-1.039.269-2.1.36-3.131.055-.633.11-1.267.185-1.898.249-2.114 1.32-3.04 3.47-2.99a7.255 7.255 0 0 1 6.625 5.193 21 21 0 0 1 .525 3.596q.043.5.092.997.04.55.009 1.1a4.8 4.8 0 0 0 .203 1.987c.322.799 1.155 2.226 2.231 2.513.754.197 1.809-.166 3.147-1.085a3.2 3.2 0 0 0 .939-1.324q.17-.378.394-.728c.256-.379.504-.767.752-1.155a19 19 0 0 1 2.121-2.9c1.27-1.334 2.71-1.969 4.057-1.79 1.33.179 2.534 1.153 3.392 2.744a22.2 22.2 0 0 1 2.913 12.103c-.532 7.89-1.461 15.853-2.29 22.699-.722 5.963-3.14 11.457-5.411 16.045-3.514 7.102-9.528 11.922-18.385 14.735-12.69 4.03-25.138 1.83-37.001-6.539a13.2 13.2 0 0 1-3.266-3.175 94 94 0 0 1-5.472-8.817 371 371 0 0 1-7.899-15.575c-3.997-8.36-9.111-14.945-15.635-20.13a11.5 11.5 0 0 1-2.75-3.184 2.6 2.6 0 0 1-.31-2.121 3.1 3.1 0 0 1 1.781-1.761 9.95 9.95 0 0 1 4.106-.865c.76.002 1.52.076 2.266.218 5.729 1.065 9.572 3.195 12.095 6.701a17.4 17.4 0 0 1 2.035 4.496q.205.602.418 1.191c.56 1.54 1.345 2.967 3.266 2.988 1.685.015 2.945-1.028 3.402-2.872.259-1 .387-2.03.382-3.063m49.032-69.811c1.914.14 3.895.212 6.056.218 5.25.017 10.502.015 15.827.012h5.468l-.363.478-1.629 2.151a149 149 0 0 1-1.195 1.572c-1.016 1.329-2.066 2.703-3.034 4.104-1.072 1.55-.992 3.03.219 4.062.377.35.868.552 1.383.565a4.06 4.06 0 0 0 2.259-1.064l.086-.065q.434-.333.78-.757a906 906 0 0 1 2.888-3.467c2.449-2.93 4.981-5.959 7.385-9.009 1.14-1.444 1.566-2.523 1.378-3.495-.191-1.007-1.018-1.872-2.763-2.888a1833 1833 0 0 1-9.631-5.65l-3.992-2.347a4 4 0 0 1-.334-.234 1.6 1.6 0 0 0-1.011-.45l-.187.015c-.864.06-1.94.137-2.418.733-.502.626-.468 1.977-.101 2.766a5.45 5.45 0 0 0 2.028 1.954 339 339 0 0 0 5.644 3.668q.964.618 1.928 1.239l-4.638.252c-3.765.18-7.53.359-11.295.562l-1.063.058c-3.182.17-6.475.345-9.695.713a3.22 3.22 0 0 0-2.221 2.085 1.57 1.57 0 0 0 .239 1.32 2.68 2.68 0 0 0 2.002.9"/></g><defs><clipPath id="a"><path fill="#fff" d="M.291.23h124.048v148.99H.291z"/></clipPath></defs></svg>
